ejemplos/libro_interactivo_katex/images/general/portada_capitulos.svg

<svg height="660" viewBox="0 0 512 660" width="512" xmlns="http://www.w3.org/2000/svg" xmlns:xlink="http://www.w3.org/1999/xlink"><filter id="a" color-interpolation-filters="sRGB" height="1.5" width="1" x="0"><feFlood flood-opacity=".1"/><feComposite in2="SourceGraphic" operator="in"/><feOffset dy="2" result="result1"/><feComposite in="SourceGraphic" in2="result1"/></filter><path d="m38.246.211v659.577m33.824-659.577v659.577m33.825-659.577v659.577m33.824-659.577v659.577m33.825-659.577v659.577m33.824-659.577v659.577m33.825-659.577v659.577m33.824-659.577v659.577m33.825-659.577v659.577m33.824-659.577v659.577m33.825-659.577v659.577m33.824-659.577v659.577m33.825-659.577v659.577m33.824-659.577v659.577m-473.542-625.752h507.367m-507.367 33.824h507.367m-507.367 33.825h507.367m-507.367 33.824h507.367m-507.367 33.825h507.367m-507.367 33.824h507.367m-507.367 33.825h507.367m-507.367 33.824h507.367m-507.367 33.825h507.367m-507.367 33.824h507.367m-507.367 33.825h507.367m-507.367 33.824h507.367m-507.367 33.825h507.367m-507.367 33.824h507.367m-507.367 33.824h507.367m-507.367 33.825h507.367m-507.367 33.824h507.367m-507.367 33.825h507.367m-507.367 33.824h507.367m-498.911-642.665v659.579m8.456-659.58v659.577m8.456-659.576v659.579m16.912-659.58v659.58m8.456-659.58v659.58m8.456-659.58v659.58m16.913-659.58v659.58m8.456-659.58v659.58m8.456-659.58v659.58m16.911-659.58v659.58m8.457-659.58v659.58m8.456-659.58v659.58m16.913-659.58v659.58m8.456-659.58v659.58m8.456-659.58v659.58m16.912-659.58v659.58m8.456-659.58v659.58m8.456-659.58v659.58m16.912-659.58v659.58m8.457-659.58v659.58m8.456-659.58v659.58m16.912-659.58v659.58m8.456-659.58v659.58m8.456-659.58v659.58m16.912-659.58v659.58m8.457-659.58v659.58m8.456-659.58v659.58m16.912-659.58v659.58m8.456-659.58v659.58m8.456-659.58v659.58m16.912-659.58v659.58m8.456-659.58v659.58m8.457-659.58v659.58m16.912-659.58v659.58m8.456-659.58v659.58m8.456-659.58v659.58m16.912-659.58v659.58m8.456-659.58v659.58m8.457-659.58v659.58m16.912-659.58v659.58m8.456-659.58v659.58m8.456-659.58v659.58m16.912-659.58v659.58m8.456-659.58v659.58m8.456-659.58v659.58m8.458-659.58h-507.368v659.58h507.367v-659.58 659.577m-507.367-651.119h507.367m-507.367 8.456h507.367m-507.367 8.456h507.367m-507.367 16.912h507.367m-507.367 8.456h507.367m-507.367 8.456h507.367m-507.367 16.912h507.367m-507.367 8.457h507.367m-507.367 8.456h507.367m-507.367 16.911h507.367m-507.367 8.457h507.367m-507.367 8.456h507.367m-507.367 16.912h507.367m-507.367 8.457h507.367m-507.367 8.456h507.367m-507.367 16.912h507.367m-507.367 8.456h507.367m-507.367 8.456h507.367m-507.367 16.912h507.367m-507.367 8.456h507.367m-507.367 8.457h507.367m-507.367 16.912h507.367m-507.367 8.456h507.367m-507.367 8.455h507.367m-507.367 16.913h507.367m-507.367 8.457h507.367m-507.367 8.456h507.367m-507.367 16.912h507.367m-507.367 8.456h507.367m-507.367 8.456h507.367m-507.367 16.912h507.367m-507.367 8.456h507.367m-507.367 8.456h507.367m-507.367 16.913h507.367m-507.367 8.456h507.367m-507.367 8.456h507.367m-507.367 16.911h507.367m-507.367 8.457h507.367m-507.367 8.456h507.367m-507.367 16.913h507.367m-507.367 8.456h507.367m-507.367 8.456h507.367m-507.367 16.912h507.367m-507.367 8.456h507.367m-507.367 8.456h507.367m-507.367 16.913h507.367m-507.367 8.455h507.367m-507.367 8.457h507.367m-507.367 16.912h507.367m-507.367 8.456h507.367m-507.367 8.456h507.367m-507.367 16.913h507.367m-507.367 8.456h507.367m-507.367 8.456h507.367m-507.367 16.912h507.367m-507.367 8.456h507.367m-507.367 8.456h507.367m-507.367 16.913h507.367" fill="none" stroke="#e6e6e6" stroke-miterlimit="10" stroke-width=".423"/><g fill="#868686" fill-opacity=".118" transform="translate(0 -194)"><path d="m271.25 375.824c-131.148 0-237.55 106.403-237.55 237.551s106.402 237.55 237.55 237.55 237.55-106.402 237.55-237.55-106.402-237.55-237.55-237.55zm-10.987 457.483c-121.448 0-222.11-98.484-222.11-219.932s100.662-219.932 222.11-219.932 219.933 98.484 219.933 219.932-98.486 219.932-219.933 219.932z"/><path d="m249.277 411.06c-111.748 0-206.769 90.567-206.769 202.315s95.02 202.314 206.769 202.314c111.747 0 202.314-90.566 202.314-202.314s-90.567-202.314-202.314-202.314zm-10.987 387.11c-102.048 0-191.328-82.747-191.328-184.795s89.28-184.795 191.328-184.795 184.696 82.747 184.696 184.795-82.648 184.795-184.696 184.795z"/><path d="m227.303 446.199c-92.348 0-175.985 74.828-175.985 167.176s83.637 167.176 175.985 167.176 167.077-74.828 167.077-167.176-74.828-167.176-167.077-167.176zm-11.086 316.734c-82.647 0-160.544-67.01-160.544-149.558 0-82.549 77.996-149.558 160.544-149.558 82.55 0 149.657 66.91 149.657 149.558s-67.009 149.558-149.657 149.558z"/><path d="m205.23 481.435c-72.848 0-145.202 59.091-145.202 131.94s72.255 131.94 145.203 131.94 132.038-59.091 132.038-131.94-59.09-131.94-132.038-131.94zm-10.986 246.36c-63.149 0-129.762-51.172-129.762-114.42s66.613-114.42 129.762-114.42 114.42 51.271 114.42 114.42-51.271 114.42-114.42 114.42z"/><path d="m183.257 516.573c-53.449 0-114.42 43.353-114.42 96.802s60.971 96.802 114.42 96.802c53.45 0 96.802-43.353 96.802-96.802s-43.353-96.802-96.802-96.802zm-10.986 175.987c-43.75 0-98.98-35.435-98.98-79.184s55.23-79.184 98.98-79.184c43.748 0 79.183 35.435 79.183 79.184s-35.435 79.184-79.183 79.184z"/></g><path d="m46.5 460.75v90h465.5v-90z" fill="#fff" fill-opacity=".627" filter="url(#a)" stroke-width=".795548" transform="matrix(1 0 0 1.5800377 0 -419.45574)"/><path d="m46.5 0v465.5h465.5v-465.5z" fill="#fff" filter="url(#a)" stroke-width="1.188774" transform="matrix(1 0 0 .70762257 0 -13.610169)"/><path d="m0 660h46.5v-660h-46.5z" fill="#2daae4"/></svg>

<svg xmlns="http://www.w3.org/2000/svg" height="660" width="512"><filter id="a" color-interpolation-filters="sRGB" height="1.5" width="1" x="0"><feFlood flood-opacity=".1"/><feComposite in2="SourceGraphic" operator="in"/><feOffset dy="2" result="result1"/><feComposite in="SourceGraphic" in2="result1"/></filter><path d="M46.5 0v660H512V0z" fill="#fff"/><path d="M38.246.211v659.577M72.07.211v659.577M105.895.211v659.577M139.719.211v659.577M173.544.211v659.577M207.368.211v659.577M241.193.211v659.577M275.017.211v659.577M308.842.211v659.577M342.666.211v659.577M376.491.211v659.577M410.315.211v659.577M444.14.211v659.577M477.964.211v659.577M4.422 34.036h507.367M4.422 67.86h507.367M4.422 101.685h507.367M4.422 135.509h507.367M4.422 169.334h507.367M4.422 203.158h507.367M4.422 236.983h507.367M4.422 270.807h507.367M4.422 304.632h507.367M4.422 338.456h507.367M4.422 372.281h507.367M4.422 406.105h507.367M4.422 439.93h507.367M4.422 473.754h507.367M4.422 507.578h507.367M4.422 541.403h507.367M4.422 575.227h507.367M4.422 609.052h507.367M4.422 642.876h507.367M12.878.211V659.79M21.334.21v659.577M29.79.211V659.79M46.702.21v659.58M55.158.21v659.58M63.614.21v659.58M80.527.21v659.58M88.983.21v659.58M97.439.21v659.58M114.35.21v659.58M122.807.21v659.58M131.263.21v659.58M148.176.21v659.58M156.632.21v659.58M165.088.21v659.58M182 .21v659.58M190.456.21v659.58M198.912.21v659.58M215.824.21v659.58M224.281.21v659.58M232.737.21v659.58M249.649.21v659.58M258.105.21v659.58M266.561.21v659.58M283.473.21v659.58M291.93.21v659.58M300.386.21v659.58M317.298.21v659.58M325.754.21v659.58M334.21.21v659.58M351.122.21v659.58M359.578.21v659.58M368.035.21v659.58M384.947.21v659.58M393.403.21v659.58M401.859.21v659.58M418.771.21v659.58M427.227.21v659.58M435.684.21v659.58M452.596.21v659.58M461.052.21v659.58M469.508.21v659.58M486.42.21v659.58M494.876.21v659.58M503.332.21v659.58M511.79.21H4.422v659.58h507.367V.21v659.577M4.422 8.668h507.367M4.422 17.124h507.367M4.422 25.58h507.367M4.422 42.492h507.367M4.422 50.948h507.367M4.422 59.404h507.367M4.422 76.316h507.367M4.422 84.773h507.367M4.422 93.229h507.367M4.422 110.14h507.367M4.422 118.597h507.367M4.422 127.053h507.367M4.422 143.965h507.367M4.422 152.422h507.367M4.422 160.878h507.367M4.422 177.79h507.367M4.422 186.246h507.367M4.422 194.702h507.367M4.422 211.614h507.367M4.422 220.07h507.367M4.422 228.527h507.367M4.422 245.439h507.367M4.422 253.895h507.367M4.422 262.35h507.367M4.422 279.263h507.367M4.422 287.72h507.367M4.422 296.176h507.367M4.422 313.088h507.367M4.422 321.544h507.367M4.422 330h507.367M4.422 346.912h507.367M4.422 355.368h507.367M4.422 363.824h507.367M4.422 380.737h507.367M4.422 389.193h507.367M4.422 397.649h507.367M4.422 414.56h507.367M4.422 423.017h507.367M4.422 431.473h507.367M4.422 448.386h507.367M4.422 456.842h507.367M4.422 465.298h507.367M4.422 482.21h507.367M4.422 490.666h507.367M4.422 499.122h507.367M4.422 516.035h507.367M4.422 524.49h507.367M4.422 532.947h507.367M4.422 549.859h507.367M4.422 558.315h507.367M4.422 566.771h507.367M4.422 583.684h507.367M4.422 592.14h507.367M4.422 600.596h507.367M4.422 617.508h507.367M4.422 625.964h507.367M4.422 634.42h507.367M4.422 651.333h507.367" fill="none" stroke="#e6e6e6" stroke-miterlimit="10" stroke-width=".423"/><g fill="#868686" fill-opacity=".118"><path d="M271.25 181.824c-131.148 0-237.55 106.403-237.55 237.551s106.402 237.55 237.55 237.55S508.8 550.523 508.8 419.375s-106.402-237.55-237.55-237.55zm-10.987 457.483c-121.448 0-222.11-98.484-222.11-219.932s100.662-219.932 222.11-219.932 219.933 98.484 219.933 219.932-98.486 219.932-219.933 219.932z"/><path d="M249.277 217.06c-111.748 0-206.769 90.567-206.769 202.315s95.02 202.314 206.769 202.314c111.747 0 202.314-90.566 202.314-202.314s-90.567-202.314-202.314-202.314zM238.29 604.17c-102.048 0-191.328-82.747-191.328-184.795S136.242 234.58 238.29 234.58s184.696 82.747 184.696 184.795S340.338 604.17 238.29 604.17z"/><path d="M227.303 252.199c-92.348 0-175.985 74.828-175.985 167.176s83.637 167.176 175.985 167.176S394.38 511.723 394.38 419.375s-74.828-167.176-167.077-167.176zm-11.086 316.734c-82.647 0-160.544-67.01-160.544-149.558 0-82.549 77.996-149.558 160.544-149.558 82.55 0 149.657 66.91 149.657 149.558s-67.009 149.558-149.657 149.558z"/><path d="M205.23 287.435c-72.848 0-145.202 59.091-145.202 131.94s72.255 131.94 145.203 131.94 132.038-59.091 132.038-131.94-59.09-131.94-132.038-131.94zm-10.986 246.36c-63.149 0-129.762-51.172-129.762-114.42s66.613-114.42 129.762-114.42 114.42 51.271 114.42 114.42-51.271 114.42-114.42 114.42z"/><path d="M183.257 322.573c-53.449 0-114.42 43.353-114.42 96.802s60.971 96.802 114.42 96.802c53.45 0 96.802-43.353 96.802-96.802s-43.353-96.802-96.802-96.802zM172.271 498.56c-43.75 0-98.98-35.435-98.98-79.184s55.23-79.184 98.98-79.184c43.748 0 79.183 35.435 79.183 79.184s-35.435 79.184-79.183 79.184z"/></g><path d="M46.5 460.75v90H512v-90z" fill="#fff" fill-opacity=".627" filter="url(#a)" transform="matrix(1 0 0 1.58004 0 -419.456)"/><path d="M46.5 0v465.5H512V0z" fill="#fff" filter="url(#a)" transform="matrix(1 0 0 .70762 0 -13.61)"/><path d="M0 660h46.5V0H0z" fill="#2daae4"/></svg>
